static/assets/img/icons/theme/communication/mail-box.svg

<svg height="24" viewBox="0 0 24 24" width="24" xmlns="http://www.w3.org/2000/svg"><g fill="none" fill-rule="evenodd"><path d="m0 0h24v24h-24z" opacity="0"/><g fill="#000"><path d="m22 15v4c0 1.1045695-.8954305 2-2 2h-16c-1.1045695 0-2-.8954305-2-2v-4h4.27924078l.54415184 1.6324555c.2722281.8166843 1.03650578 1.3675445 1.8973666 1.3675445h6.66120678c.7575441 0 1.4500704-.4280048 1.7888544-1.1055728l.9472136-1.8944272z"/><path d="m2.5625 13 3.36404389-5.98052248c.35423661-.62975396 1.02060445-1.01947752 1.74315108-1.01947752h8.66061003c.7225467 0 1.3889145.38972356 1.7431511 1.01947752l3.3640439 5.98052248h-3.319466c-.7575441 0-1.4500704.4280048-1.7888544 1.1055728l-.9472136 1.8944272h-6.66120678l-.54415184-1.6324555c-.2722281-.8166843-1.03650578-1.3675445-1.8973666-1.3675445z" opacity=".3"/></g></g></svg>

<svg width="24px" height="24px" viewBox="0 0 24 24" version="1.1" xmlns="http://www.w3.org/2000/svg" xmlns:xlink="http://www.w3.org/1999/xlink">
    <title>Icon For Mail-box</title>
    <g stroke="none" stroke-width="1" fill="none" fill-rule="evenodd">
        <rect opacity="0" x="0" y="0" width="24" height="24"></rect>
        <path d="M22,15 L22,19 C22,20.1045695 21.1045695,21 20,21 L4,21 C2.8954305,21 2,20.1045695 2,19 L2,15 L6.27924078,15 L6.82339262,16.6324555 C7.09562072,17.4491398 7.8598984,18 8.72075922,18 L15.381966,18 C16.1395101,18 16.8320364,17.5719952 17.1708204,16.8944272 L18.118034,15 L22,15 Z" fill="#000000"></path>
        <path d="M2.5625,13 L5.92654389,7.01947752 C6.2807805,6.38972356 6.94714834,6 7.66969497,6 L16.330305,6 C17.0528517,6 17.7192195,6.38972356 18.0734561,7.01947752 L21.4375,13 L18.118034,13 C17.3604899,13 16.6679636,13.4280048 16.3291796,14.1055728 L15.381966,16 L8.72075922,16 L8.17660738,14.3675445 C7.90437928,13.5508602 7.1401016,13 6.27924078,13 L2.5625,13 Z" fill="#000000" opacity="0.3"></path>
    </g>
</svg>
